build/img/logo-text.svg

<svg width="134" height="45" viewBox="0 0 134 45" fill="none" xmlns="http://www.w3.org/2000/svg">
<path d="M8.93555 18.3369C8.93555 17.6126 8.74837 17.0674 8.37402 16.7012C8.00781 16.3268 7.33643 15.9403 6.35986 15.5415C4.57764 14.866 3.2959 14.0767 2.51465 13.1733C1.7334 12.2619 1.34277 11.1877 1.34277 9.95068C1.34277 8.45329 1.87174 7.25293 2.92969 6.34961C3.99577 5.43815 5.34668 4.98242 6.98242 4.98242C8.07292 4.98242 9.04541 5.21436 9.8999 5.67822C10.7544 6.13395 11.4095 6.78092 11.8652 7.61914C12.3291 8.45736 12.561 9.40951 12.561 10.4756H8.98438C8.98438 9.64551 8.80534 9.01481 8.44727 8.5835C8.09733 8.14404 7.5887 7.92432 6.92139 7.92432C6.29476 7.92432 5.80648 8.11149 5.45654 8.48584C5.10661 8.85205 4.93164 9.34847 4.93164 9.9751C4.93164 10.4634 5.12695 10.9069 5.51758 11.3057C5.9082 11.6963 6.59993 12.1032 7.59277 12.5264C9.32617 13.153 10.5835 13.922 11.3647 14.8335C12.1541 15.745 12.5488 16.9046 12.5488 18.3125C12.5488 19.8587 12.0565 21.0672 11.0718 21.938C10.0871 22.8088 8.74837 23.2441 7.05566 23.2441C5.9082 23.2441 4.86247 23.0081 3.91846 22.5361C2.97445 22.0641 2.23389 21.3887 1.69678 20.5098C1.16781 19.6309 0.90332 18.5933 0.90332 17.397H4.50439C4.50439 18.4224 4.70378 19.167 5.10254 19.6309C5.5013 20.0947 6.15234 20.3267 7.05566 20.3267C8.30892 20.3267 8.93555 19.6634 8.93555 18.3369ZM18.0054 9.79199L18.103 11.0127C18.8761 10.0361 19.8975 9.54785 21.167 9.54785C22.4854 9.54785 23.4172 10.1419 23.9624 11.3301C24.7192 10.1419 25.7975 9.54785 27.1973 9.54785C29.5085 9.54785 30.6925 11.147 30.7495 14.3452V23H27.2949V14.5649C27.2949 13.8 27.1891 13.2547 26.9775 12.9292C26.766 12.6037 26.4079 12.4409 25.9033 12.4409C25.2604 12.4409 24.7803 12.8356 24.4629 13.625L24.4873 14.04V23H21.0327V14.5894C21.0327 13.8325 20.931 13.2873 20.7275 12.9536C20.5241 12.6118 20.1619 12.4409 19.6411 12.4409C19.047 12.4409 18.575 12.7624 18.2251 13.4053V23H14.7705V9.79199H18.0054ZM39.5874 23C39.4897 22.7965 39.3921 22.4548 39.2944 21.9746C38.6759 22.821 37.8377 23.2441 36.7798 23.2441C35.673 23.2441 34.7534 22.8779 34.021 22.1455C33.2967 21.4131 32.9346 20.465 32.9346 19.3013C32.9346 17.9178 33.374 16.8477 34.2529 16.0908C35.14 15.334 36.4136 14.9474 38.0737 14.9312H39.1235V13.8691C39.1235 13.2751 39.0218 12.856 38.8184 12.6118C38.6149 12.3677 38.3179 12.2456 37.9272 12.2456C37.0646 12.2456 36.6333 12.7502 36.6333 13.7593H33.1787C33.1787 12.5386 33.6344 11.5335 34.5459 10.7441C35.4655 9.94661 36.6252 9.54785 38.0249 9.54785C39.4735 9.54785 40.5924 9.92627 41.3818 10.6831C42.1794 11.4318 42.5781 12.506 42.5781 13.9058V20.1191C42.5944 21.2585 42.7572 22.1496 43.0664 22.7925V23H39.5874ZM37.5488 20.5342C37.9313 20.5342 38.2568 20.4569 38.5254 20.3022C38.7939 20.1476 38.9933 19.9645 39.1235 19.7529V17.0063H38.2935C37.7075 17.0063 37.2437 17.1935 36.9019 17.5679C36.5682 17.9422 36.4014 18.4427 36.4014 19.0693C36.4014 20.0459 36.7839 20.5342 37.5488 20.5342ZM51.5991 13.1245L50.4517 13.0269C49.5076 13.0269 48.8688 13.4419 48.5352 14.272V23H45.0684V9.79199H48.3276L48.4253 11.2202C48.9705 10.1053 49.7233 9.54785 50.6836 9.54785C51.0742 9.54785 51.3916 9.60075 51.6357 9.70654L51.5991 13.1245ZM58.0078 6.54492V9.79199H59.7778V12.3921H58.0078V18.9473C58.0078 19.4681 58.077 19.8262 58.2153 20.0215C58.3618 20.2168 58.6385 20.3145 59.0454 20.3145C59.3791 20.3145 59.6517 20.286 59.8633 20.229L59.8389 22.9146C59.2529 23.1343 58.6182 23.2441 57.9346 23.2441C55.7048 23.2441 54.5776 21.9665 54.5532 19.4111V12.3921H53.0273V9.79199H54.5532V6.54492H58.0078ZM67.6147 23V5.22656H72.3145C74.3896 5.22656 76.0417 5.88574 77.2705 7.2041C78.5075 8.52246 79.1382 10.3291 79.1626 12.624V15.5049C79.1626 17.8405 78.5441 19.6756 77.3071 21.0103C76.0783 22.3368 74.3815 23 72.2168 23H67.6147ZM71.2036 8.21729V20.0215H72.2778C73.4741 20.0215 74.3164 19.7082 74.8047 19.0815C75.293 18.4468 75.5493 17.3563 75.5737 15.8101V12.7217C75.5737 11.0615 75.3418 9.90592 74.8779 9.25488C74.4141 8.5957 73.6247 8.24984 72.5098 8.21729H71.2036ZM86.9141 23.2441C85.14 23.2441 83.7565 22.7152 82.7637 21.6572C81.7708 20.5993 81.2744 19.0856 81.2744 17.1162V16.0664C81.2744 13.9831 81.7301 12.3758 82.6416 11.2446C83.5531 10.1134 84.8592 9.54785 86.5601 9.54785C88.2202 9.54785 89.4694 10.0809 90.3076 11.147C91.1458 12.2049 91.5731 13.7756 91.5894 15.8589V17.5557H84.7168C84.7656 18.5322 84.9813 19.2484 85.3638 19.7041C85.7463 20.1517 86.3363 20.3755 87.1338 20.3755C88.2894 20.3755 89.2537 19.9808 90.0269 19.1914L91.3818 21.2788C90.9587 21.8647 90.3442 22.3408 89.5386 22.707C88.7329 23.0651 87.8581 23.2441 86.9141 23.2441ZM84.7412 15.1387H88.1958V14.8213C88.1795 14.0319 88.0493 13.4338 87.8052 13.0269C87.561 12.62 87.1379 12.4165 86.5356 12.4165C85.9334 12.4165 85.494 12.6322 85.2173 13.0635C84.9487 13.4948 84.79 14.1865 84.7412 15.1387ZM97.7051 18.1172L99.3774 9.79199H102.979L99.353 23H96.0571L92.4194 9.79199H96.0327L97.7051 18.1172ZM108.228 23H104.761V9.79199H108.228V23ZM104.602 6.37402C104.602 5.83691 104.773 5.39746 105.115 5.05566C105.457 4.71387 105.912 4.54297 106.482 4.54297C107.052 4.54297 107.507 4.71387 107.849 5.05566C108.191 5.39746 108.362 5.83691 108.362 6.37402C108.362 6.90299 108.191 7.34245 107.849 7.69238C107.515 8.04232 107.06 8.21729 106.482 8.21729C105.904 8.21729 105.444 8.04232 105.103 7.69238C104.769 7.34245 104.602 6.90299 104.602 6.37402ZM115.674 20.3755C116.675 20.3755 117.183 19.7244 117.2 18.4224H120.447C120.431 19.8628 119.987 21.0265 119.116 21.9136C118.245 22.8006 117.122 23.2441 115.747 23.2441C114.046 23.2441 112.748 22.7152 111.853 21.6572C110.958 20.5993 110.502 19.0409 110.486 16.9819V15.9321C110.486 13.8569 110.925 12.2741 111.804 11.1836C112.691 10.0931 113.997 9.54785 115.723 9.54785C117.179 9.54785 118.327 9.99951 119.165 10.9028C120.003 11.798 120.431 13.0716 120.447 14.7236H117.2C117.192 13.9831 117.069 13.4134 116.833 13.0146C116.597 12.6159 116.207 12.4165 115.662 12.4165C115.059 12.4165 114.628 12.6322 114.368 13.0635C114.107 13.4867 113.969 14.3127 113.953 15.5415V16.8843C113.953 17.9585 114.006 18.7113 114.111 19.1426C114.217 19.5658 114.392 19.8791 114.636 20.0825C114.88 20.2778 115.226 20.3755 115.674 20.3755ZM127.734 23.2441C125.96 23.2441 124.577 22.7152 123.584 21.6572C122.591 20.5993 122.095 19.0856 122.095 17.1162V16.0664C122.095 13.9831 122.55 12.3758 123.462 11.2446C124.373 10.1134 125.68 9.54785 127.38 9.54785C129.041 9.54785 130.29 10.0809 131.128 11.147C131.966 12.2049 132.393 13.7756 132.41 15.8589V17.5557H125.537C125.586 18.5322 125.802 19.2484 126.184 19.7041C126.567 20.1517 127.157 20.3755 127.954 20.3755C129.11 20.3755 130.074 19.9808 130.847 19.1914L132.202 21.2788C131.779 21.8647 131.165 22.3408 130.359 22.707C129.553 23.0651 128.678 23.2441 127.734 23.2441ZM125.562 15.1387H129.016V14.8213C129 14.0319 128.87 13.4338 128.625 13.0269C128.381 12.62 127.958 12.4165 127.356 12.4165C126.754 12.4165 126.314 12.6322 126.038 13.0635C125.769 13.4948 125.61 14.1865 125.562 15.1387Z" fill="white"/>
<path d="M2.94727 38.9609L4.23633 34.6602H5.75391L3.23438 41.9609C2.84766 43.0273 2.19141 43.5605 1.26562 43.5605C1.05859 43.5605 0.830078 43.5254 0.580078 43.4551V42.3535L0.849609 42.3711C1.20898 42.3711 1.47852 42.3047 1.6582 42.1719C1.8418 42.043 1.98633 41.8242 2.0918 41.5156L2.29688 40.9707L0.0703125 34.6602H1.60547L2.94727 38.9609ZM10.3418 39.248L12.2168 34.6602H13.998V41H12.5742V36.8047L10.8281 41H9.86133L8.10938 36.7812V41H6.68555V34.6602H8.47852L10.3418 39.248ZM20.9707 41H19.5469V38.4395H17.0801V41H15.6562V34.6602H17.0801V37.3027H19.5469V34.6602H20.9707V41ZM24.0234 36.6758H25.418C25.9375 36.6758 26.3906 36.7656 26.7773 36.9453C27.1641 37.125 27.457 37.377 27.6562 37.7012C27.8594 38.0254 27.9609 38.4023 27.9609 38.832C27.9609 39.4844 27.7305 40.0078 27.2695 40.4023C26.8086 40.7969 26.1953 40.9961 25.4297 41H22.5996V34.6602H24.0234V36.6758ZM30.4395 41H29.0156V34.6602H30.4395V41ZM24.0234 37.8184V39.8633H25.4121C25.7598 39.8633 26.0332 39.7773 26.2324 39.6055C26.4355 39.4297 26.5371 39.1816 26.5371 38.8613C26.5371 38.541 26.4375 38.2891 26.2383 38.1055C26.043 37.918 25.7773 37.8223 25.4414 37.8184H24.0234ZM34.9395 41.1172C34.0371 41.1172 33.3047 40.834 32.7422 40.2676C32.1836 39.6973 31.9043 38.9395 31.9043 37.9941V37.8184C31.9043 37.1855 32.0254 36.6211 32.2676 36.125C32.5137 35.625 32.8574 35.2363 33.2988 34.959C33.7402 34.6816 34.2324 34.543 34.7754 34.543C35.6387 34.543 36.3047 34.8184 36.7734 35.3691C37.2461 35.9199 37.4824 36.6992 37.4824 37.707V38.2812H33.3398C33.3828 38.8047 33.5566 39.2188 33.8613 39.5234C34.1699 39.8281 34.5566 39.9805 35.0215 39.9805C35.6738 39.9805 36.2051 39.7168 36.6152 39.1895L37.3828 39.9219C37.1289 40.3008 36.7891 40.5957 36.3633 40.8066C35.9414 41.0137 35.4668 41.1172 34.9395 41.1172ZM34.7695 35.6855C34.3789 35.6855 34.0625 35.8223 33.8203 36.0957C33.582 36.3691 33.4297 36.75 33.3633 37.2383H36.0762V37.1328C36.0449 36.6562 35.918 36.2969 35.6953 36.0547C35.4727 35.8086 35.1641 35.6855 34.7695 35.6855ZM46.5703 35.791H44.5137V41H43.0898V35.791H41.0566V34.6602H46.5703V35.791ZM49.9395 41.1172C49.0371 41.1172 48.3047 40.834 47.7422 40.2676C47.1836 39.6973 46.9043 38.9395 46.9043 37.9941V37.8184C46.9043 37.1855 47.0254 36.6211 47.2676 36.125C47.5137 35.625 47.8574 35.2363 48.2988 34.959C48.7402 34.6816 49.2324 34.543 49.7754 34.543C50.6387 34.543 51.3047 34.8184 51.7734 35.3691C52.2461 35.9199 52.4824 36.6992 52.4824 37.707V38.2812H48.3398C48.3828 38.8047 48.5566 39.2188 48.8613 39.5234C49.1699 39.8281 49.5566 39.9805 50.0215 39.9805C50.6738 39.9805 51.2051 39.7168 51.6152 39.1895L52.3828 39.9219C52.1289 40.3008 51.7891 40.5957 51.3633 40.8066C50.9414 41.0137 50.4668 41.1172 49.9395 41.1172ZM49.7695 35.6855C49.3789 35.6855 49.0625 35.8223 48.8203 36.0957C48.582 36.3691 48.4297 36.75 48.3633 37.2383H51.0762V37.1328C51.0449 36.6562 50.918 36.2969 50.6953 36.0547C50.4727 35.8086 50.1641 35.6855 49.7695 35.6855ZM55.8691 36.7461L57.0762 34.6602H58.6582L56.7188 37.7832L58.7227 41H57.1523L55.8867 38.832L54.627 41H53.0449L55.0488 37.7832L53.1152 34.6602H54.6855L55.8691 36.7461ZM64.998 41H63.5742V38.4395H61.1074V41H59.6836V34.6602H61.1074V37.3027H63.5742V34.6602H64.998V41ZM66.252 37.7715C66.252 37.1504 66.375 36.5918 66.6211 36.0957C66.8672 35.5957 67.2129 35.2129 67.6582 34.9473C68.1035 34.6777 68.6152 34.543 69.1934 34.543C70.0488 34.543 70.7422 34.8184 71.2734 35.3691C71.8086 35.9199 72.0977 36.6504 72.1406 37.5605L72.1465 37.8945C72.1465 38.5195 72.0254 39.0781 71.7832 39.5703C71.5449 40.0625 71.2012 40.4434 70.752 40.7129C70.3066 40.9824 69.791 41.1172 69.2051 41.1172C68.3105 41.1172 67.5938 40.8203 67.0547 40.2266C66.5195 39.6289 66.252 38.834 66.252 37.8418V37.7715ZM67.6758 37.8945C67.6758 38.5469 67.8105 39.0586 68.0801 39.4297C68.3496 39.7969 68.7246 39.9805 69.2051 39.9805C69.6855 39.9805 70.0586 39.793 70.3242 39.418C70.5938 39.043 70.7285 38.4941 70.7285 37.7715C70.7285 37.1309 70.5898 36.623 70.3125 36.248C70.0391 35.873 69.666 35.6855 69.1934 35.6855C68.7285 35.6855 68.3594 35.8711 68.0859 36.2422C67.8125 36.6094 67.6758 37.1602 67.6758 37.8945ZM78.6445 34.6602V41H77.2207V35.8086H75.4277L75.3105 38.0176C75.2363 39.0801 75.0312 39.8438 74.6953 40.3086C74.3633 40.7695 73.8535 41 73.166 41H72.7266L72.7207 39.8164L73.0137 39.7871C73.3262 39.7441 73.5527 39.5547 73.6934 39.2188C73.8379 38.8789 73.9297 38.2617 73.9688 37.3672L74.0859 34.6602H78.6445ZM79.8926 37.7715C79.8926 37.1504 80.0156 36.5918 80.2617 36.0957C80.5078 35.5957 80.8535 35.2129 81.2988 34.9473C81.7441 34.6777 82.2559 34.543 82.834 34.543C83.6895 34.543 84.3828 34.8184 84.9141 35.3691C85.4492 35.9199 85.7383 36.6504 85.7812 37.5605L85.7871 37.8945C85.7871 38.5195 85.666 39.0781 85.4238 39.5703C85.1855 40.0625 84.8418 40.4434 84.3926 40.7129C83.9473 40.9824 83.4316 41.1172 82.8457 41.1172C81.9512 41.1172 81.2344 40.8203 80.6953 40.2266C80.1602 39.6289 79.8926 38.834 79.8926 37.8418V37.7715ZM81.3164 37.8945C81.3164 38.5469 81.4512 39.0586 81.7207 39.4297C81.9902 39.7969 82.3652 39.9805 82.8457 39.9805C83.3262 39.9805 83.6992 39.793 83.9648 39.418C84.2344 39.043 84.3691 38.4941 84.3691 37.7715C84.3691 37.1309 84.2305 36.623 83.9531 36.248C83.6797 35.873 83.3066 35.6855 82.834 35.6855C82.3691 35.6855 82 35.8711 81.7266 36.2422C81.4531 36.6094 81.3164 37.1602 81.3164 37.8945ZM91.2129 35.8086H88.459V41H87.041V34.6602H91.2129V35.8086ZM95.9766 34.6602H97.3945V41H95.9766V36.7695L93.4922 41H92.0742V34.6602H93.4922V38.8906L95.9766 34.6602ZM102.867 34.6602H104.285V41H102.867V36.7695L100.383 41H98.9648V34.6602H100.383V38.8906L102.867 34.6602Z" fill="#788891"/>
</svg>

<svg width="134" height="45" fill="none" xmlns="http://www.w3.org/2000/svg"><path d="M8.936 18.337c0-.724-.188-1.27-.562-1.636-.366-.374-1.038-.76-2.014-1.16-1.782-.675-3.064-1.464-3.845-2.368-.782-.911-1.172-1.985-1.172-3.222 0-1.498.529-2.698 1.587-3.601 1.066-.912 2.417-1.368 4.052-1.368 1.09 0 2.063.232 2.918.696a4.708 4.708 0 011.965 1.941c.464.838.696 1.79.696 2.857H8.984c0-.83-.179-1.461-.537-1.893-.35-.439-.858-.659-1.526-.659-.626 0-1.115.187-1.464.562-.35.366-.525.862-.525 1.49 0 .487.195.93.586 1.33.39.39 1.082.797 2.075 1.22 1.733.627 2.99 1.396 3.772 2.308.79.911 1.184 2.07 1.184 3.479 0 1.546-.492 2.754-1.477 3.625-.985.87-2.324 1.306-4.016 1.306-1.148 0-2.194-.236-3.138-.708a5.35 5.35 0 01-2.221-2.026c-.53-.88-.794-1.917-.794-3.113h3.601c0 1.025.2 1.77.599 2.234.398.464 1.05.696 1.953.696 1.253 0 1.88-.664 1.88-1.99zm9.07-8.545l.097 1.22c.773-.976 1.794-1.464 3.064-1.464 1.318 0 2.25.594 2.795 1.782.757-1.188 1.835-1.782 3.235-1.782 2.312 0 3.495 1.599 3.553 4.797V23h-3.455v-8.435c0-.765-.106-1.31-.318-1.636-.211-.325-.57-.488-1.074-.488-.643 0-1.123.395-1.44 1.184l.024.415V23h-3.454v-8.41c0-.758-.102-1.303-.306-1.636-.203-.342-.565-.513-1.086-.513-.594 0-1.066.321-1.416.964V23H14.77V9.792h3.235zM39.586 23c-.097-.203-.195-.545-.293-1.025-.618.846-1.456 1.27-2.514 1.27-1.107 0-2.027-.367-2.759-1.1-.724-.732-1.086-1.68-1.086-2.844 0-1.383.439-2.453 1.318-3.21.887-.757 2.16-1.144 3.82-1.16h1.05V13.87c0-.594-.101-1.013-.305-1.257-.203-.244-.5-.366-.89-.366-.863 0-1.295.504-1.295 1.513H33.18c0-1.22.455-2.226 1.367-3.015.92-.797 2.08-1.196 3.479-1.196 1.449 0 2.567.378 3.357 1.135.797.749 1.196 1.823 1.196 3.223v6.213c.016 1.14.18 2.03.488 2.674V23h-3.479zm-2.038-2.466c.382 0 .708-.077.976-.232.269-.154.468-.337.599-.55v-2.746h-.83c-.586 0-1.05.188-1.392.562-.334.374-.5.875-.5 1.501 0 .977.382 1.465 1.147 1.465zm14.05-7.41l-1.147-.097c-.944 0-1.583.415-1.917 1.245V23h-3.467V9.792h3.26l.097 1.428c.546-1.115 1.298-1.672 2.259-1.672.39 0 .708.053.952.159l-.037 3.417zm6.409-6.58v3.248h1.77v2.6h-1.77v6.555c0 .521.069.88.207 1.075.147.195.423.293.83.293.334 0 .607-.029.818-.086l-.024 2.686c-.586.22-1.22.33-1.904.33-2.23 0-3.357-1.279-3.382-3.834v-7.019h-1.526v-2.6h1.526V6.545h3.455zM67.615 23V5.227h4.7c2.075 0 3.727.659 4.956 1.977 1.236 1.318 1.867 3.125 1.892 5.42v2.88c0 2.336-.619 4.172-1.856 5.506-1.229 1.327-2.925 1.99-5.09 1.99h-4.602zm3.589-14.783v11.804h1.074c1.196 0 2.038-.313 2.527-.94.488-.634.744-1.725.769-3.27v-3.09c0-1.66-.232-2.815-.696-3.466-.464-.66-1.253-1.005-2.368-1.038h-1.306zm15.71 15.027c-1.774 0-3.157-.529-4.15-1.587-.993-1.058-1.49-2.571-1.49-4.54v-1.05c0-2.084.456-3.691 1.368-4.822.911-1.132 2.217-1.697 3.918-1.697 1.66 0 2.91.533 3.748 1.599.838 1.058 1.265 2.629 1.281 4.712v1.697h-6.872c.049.976.264 1.692.647 2.148.382.448.972.671 1.77.671 1.155 0 2.12-.394 2.893-1.184l1.355 2.088c-.423.586-1.038 1.062-1.843 1.428a6.388 6.388 0 01-2.625.537zm-2.173-8.105h3.455v-.318c-.016-.79-.147-1.387-.39-1.794-.245-.407-.668-.61-1.27-.61-.603 0-1.042.215-1.319.646-.268.432-.427 1.123-.476 2.076zm12.964 2.978l1.672-8.325h3.602L99.353 23h-3.296L92.42 9.792h3.614l1.672 8.325zM108.228 23h-3.467V9.792h3.467V23zm-3.626-16.626c0-.537.171-.977.513-1.318.342-.342.797-.513 1.367-.513s1.025.17 1.367.513c.342.341.513.78.513 1.318 0 .529-.171.968-.513 1.318-.334.35-.789.525-1.367.525s-1.038-.175-1.379-.525c-.334-.35-.501-.789-.501-1.318zm11.072 14.002c1.001 0 1.509-.652 1.526-1.954h3.247c-.016 1.44-.46 2.604-1.331 3.492-.871.887-1.994 1.33-3.369 1.33-1.701 0-2.999-.529-3.894-1.587-.895-1.058-1.351-2.616-1.367-4.675v-1.05c0-2.075.439-3.658 1.318-4.748.887-1.09 2.193-1.636 3.919-1.636 1.456 0 2.604.452 3.442 1.355.838.895 1.266 2.169 1.282 3.82H117.2c-.008-.74-.131-1.31-.367-1.708-.236-.4-.626-.599-1.171-.599-.603 0-1.034.216-1.294.647-.261.424-.399 1.25-.415 2.478v1.343c0 1.075.053 1.827.158 2.259.106.423.281.736.525.94.244.195.59.293 1.038.293zm12.06 2.868c-1.774 0-3.157-.529-4.15-1.587-.993-1.058-1.489-2.571-1.489-4.54v-1.05c0-2.084.455-3.691 1.367-4.822.911-1.132 2.218-1.697 3.918-1.697 1.661 0 2.91.533 3.748 1.599.838 1.058 1.265 2.629 1.282 4.712v1.697h-6.873c.049.976.265 1.692.647 2.148.383.448.973.671 1.77.671 1.156 0 2.12-.394 2.893-1.184l1.355 2.088c-.423.586-1.037 1.062-1.843 1.428a6.392 6.392 0 01-2.625.537zm-2.172-8.105h3.454v-.318c-.016-.79-.146-1.387-.391-1.794-.244-.407-.667-.61-1.269-.61-.602 0-1.042.215-1.318.646-.269.432-.428 1.123-.476 2.076z" fill="#fff"/><path d="M2.947 38.96l1.29-4.3h1.517l-2.52 7.3c-.386 1.067-1.043 1.6-1.968 1.6a2.55 2.55 0 01-.686-.105v-1.102l.27.018c.359 0 .629-.066.808-.2.184-.128.328-.347.434-.655l.205-.545L.07 34.66h1.535l1.342 4.3zm7.395.288l1.875-4.588h1.781V41h-1.424v-4.195L10.828 41h-.967L8.11 36.781V41H6.686v-6.34h1.793l1.863 4.588zM20.97 41h-1.424v-2.56H17.08V41h-1.424v-6.34h1.424v2.643h2.467V34.66h1.424V41zm3.052-4.324h1.395c.52 0 .973.09 1.36.27.386.179.679.431.878.755.203.324.305.701.305 1.131 0 .652-.23 1.176-.691 1.57-.461.395-1.075.594-1.84.598H22.6v-6.34h1.423v2.016zM30.44 41h-1.423v-6.34h1.424V41zm-6.416-3.182v2.045h1.39c.347 0 .62-.086.82-.258.203-.175.304-.423.304-.744 0-.32-.1-.572-.299-.755-.195-.188-.46-.284-.797-.288h-1.418zm10.917 3.3c-.903 0-1.635-.284-2.198-.85-.558-.57-.838-1.328-.838-2.274v-.176c0-.633.121-1.197.364-1.693.246-.5.59-.889 1.03-1.166a2.718 2.718 0 011.477-.416c.864 0 1.53.275 1.998.826.473.55.71 1.33.71 2.338v.574H33.34c.043.524.217.938.521 1.242.309.305.696.457 1.16.457.653 0 1.184-.263 1.594-.79l.768.732a2.58 2.58 0 01-1.02.885c-.422.207-.896.31-1.423.31zm-.17-5.433c-.391 0-.708.137-.95.41-.238.274-.39.655-.457 1.143h2.713v-.105c-.031-.477-.158-.836-.38-1.078-.223-.246-.532-.37-.926-.37zm11.8.106h-2.056V41H43.09v-5.209h-2.033v-1.13h5.513v1.13zm3.37 5.326c-.903 0-1.635-.283-2.198-.85-.558-.57-.838-1.328-.838-2.273v-.176c0-.633.121-1.197.364-1.693.246-.5.59-.889 1.03-1.166a2.718 2.718 0 011.477-.416c.864 0 1.53.275 1.998.826.473.55.71 1.33.71 2.338v.574H48.34c.043.524.217.938.521 1.242.309.305.696.457 1.16.457.653 0 1.184-.263 1.594-.79l.768.732a2.58 2.58 0 01-1.02.885c-.422.207-.896.31-1.423.31zm-.17-5.431c-.391 0-.708.136-.95.41-.238.273-.39.654-.457 1.142h2.713v-.105c-.031-.477-.158-.836-.38-1.078-.223-.246-.532-.37-.926-.37zm6.1 1.06l1.206-2.086h1.582l-1.94 3.123L58.724 41h-1.57l-1.266-2.168L54.627 41h-1.582l2.004-3.217-1.934-3.123h1.57l1.184 2.086zM64.997 41h-1.424v-2.56h-2.467V41h-1.423v-6.34h1.423v2.643h2.467V34.66h1.424V41zm1.254-3.228c0-.622.123-1.18.37-1.676.245-.5.59-.883 1.036-1.149.445-.27.957-.404 1.535-.404.856 0 1.55.275 2.08.826.536.55.825 1.281.868 2.191l.005.334c0 .626-.12 1.184-.363 1.676a2.64 2.64 0 01-1.031 1.143c-.445.27-.961.404-1.547.404-.894 0-1.611-.297-2.15-.89-.536-.598-.803-1.393-.803-2.385v-.07zm1.424.123c0 .652.135 1.164.404 1.535.27.367.645.55 1.125.55s.854-.187 1.12-.562c.269-.375.403-.924.403-1.646 0-.641-.138-1.149-.415-1.524a1.311 1.311 0 00-1.12-.563c-.465 0-.834.186-1.107.557-.273.367-.41.918-.41 1.653zm10.968-3.235V41H77.22v-5.191h-1.793l-.117 2.209c-.075 1.062-.28 1.826-.616 2.29-.332.462-.841.692-1.529.692h-.44l-.005-1.184.293-.029c.312-.043.539-.232.68-.568.144-.34.236-.957.275-1.852l.117-2.707h4.558zm1.249 3.112c0-.622.123-1.18.369-1.676.246-.5.591-.883 1.037-1.149.445-.27.957-.404 1.535-.404.855 0 1.549.275 2.08.826.535.55.824 1.281.867 2.191l.006.334c0 .626-.121 1.184-.363 1.676a2.64 2.64 0 01-1.031 1.143c-.446.27-.961.404-1.547.404-.895 0-1.612-.297-2.15-.89-.536-.598-.803-1.393-.803-2.385v-.07zm1.423.123c0 .652.135 1.164.405 1.535.27.367.644.55 1.125.55.48 0 .853-.187 1.119-.562.27-.375.404-.924.404-1.646 0-.641-.138-1.149-.416-1.524a1.311 1.311 0 00-1.119-.563c-.465 0-.834.186-1.107.557-.274.367-.41.918-.41 1.653zm9.897-2.086h-2.754V41H87.04v-6.34h4.172v1.149zm4.764-1.149h1.417V41h-1.417v-4.23L93.492 41h-1.418v-6.34h1.418v4.23l2.485-4.23zm6.89 0h1.418V41h-1.418v-4.23L100.383 41h-1.418v-6.34h1.418v4.23l2.484-4.23z" fill="#788891"/></svg>
